icons/mailjet.svg

<?xml version="1.0" encoding="UTF-8"?>
<svg width="513px" height="201px" viewBox="0 0 513 201" version="1.1" xmlns="http://www.w3.org/2000/svg" xmlns:xlink="http://www.w3.org/1999/xlink" preserveAspectRatio="xMidYMid">
		<g fill="#FEAD0D">
				<path d="M263.898605,26.9404686 L231.714249,44.6385866 L58.8626296,139.815133 L48.2437588,145.648957 L79.7070798,99.6338497 L84.2954807,69.1537575 L263.898605,26.9404686 Z M0,0 L98.8472667,13.6996543 L174.359237,24.1218794 L209.952119,29.1035719 L218.735629,30.2834464 L83.1811548,61.0912815 L81.8046345,60.1080527 L36.2483677,26.6127256 L0,0 Z"></path>
				<path d="M403.58264,95.1109973 L389.555243,174.097043 C388.047625,182.880553 387.129945,184.847011 368.514147,199.333248 L364.056843,193.23723 C378.346435,181.569581 380.181795,180.25861 381.492767,172.458328 L394.930227,96.2908718 L403.58264,95.1109973 Z M443.042888,94.3244143 C454.841634,94.3244143 462.314172,100.289336 462.314172,111.170401 C462.314172,122.838049 454.579439,129.065165 434.652669,134.636794 C421.098106,138.3738 417.152579,139.479032 416.901989,139.549295 L416.890427,139.552538 C416.889474,139.552806 416.889003,139.552938 416.889003,139.552938 L415.053642,149.450775 C414.922545,150.827295 414.791448,152.138267 414.791448,153.38369 C414.791448,159.479708 417.151197,162.62604 427.311228,162.62604 C435.701447,162.62604 444.026117,159.807451 453.006273,155.612342 L455.103828,162.036103 C446.320318,166.690052 436.160287,169.967482 426.327999,169.967482 C412.693893,169.967482 406.466778,164.592498 406.466778,153.580335 C406.466778,151.351684 406.794521,148.926386 407.253361,146.43554 L411.514019,121.920369 C414.856997,103.435668 424.361541,94.3244143 443.042888,94.3244143 Z M293.854308,94.2588657 C300.868007,94.2588657 313.846627,96.4875176 321.319165,98.9128153 L309.06158,168.394316 L293.985405,168.394316 L293.854308,160.33184 C287.627192,166.034567 279.826911,169.901933 270.12572,169.901933 C257.60594,169.901933 253.214185,163.215977 253.214185,153.318141 C253.214185,150.892843 253.541928,148.401997 254.000768,145.714505 L257.737038,124.542312 C261.145564,104.812188 265.799514,94.2588657 293.854308,94.2588657 Z M493.44975,76.822942 L490.172321,95.7664832 L512,95.7664832 L510.361285,102.911279 L488.861349,102.911279 L479.487902,156.464473 C479.291256,157.513251 479.160159,158.365382 479.160159,159.151965 C479.160159,161.970554 480.602228,162.691589 484.076303,162.691589 C488.140315,162.691589 493.187556,161.511714 498.56254,159.283062 L500.660095,164.920241 C495.088465,168.066573 488.861349,169.836385 482.568685,169.836385 C475.227244,169.901933 470.573294,166.755601 470.573294,160.200743 C470.573294,159.283062 470.704391,158.365382 470.901037,157.382153 L480.47113,102.911279 L466.57483,102.911279 L467.754705,95.7664832 L481.782102,95.7664832 L484.928434,78.0028165 L493.44975,76.822942 Z M237.67917,94.1933171 C247.642555,94.1933171 250.985533,100.748176 250.985533,108.679554 C250.985533,111.235949 250.723339,113.595698 250.19895,115.82435 L240.9566,168.394316 L223.061836,168.394316 L232.173089,116.610933 C232.304186,115.82435 232.304186,114.972219 232.304186,114.644476 C232.304186,112.743567 231.386506,111.563692 228.567917,111.563692 C223.78287,111.563692 213.62284,116.020996 206.936884,120.085008 L198.415568,168.459864 L180.520804,168.459864 L189.632057,116.676482 C189.763155,115.889899 189.763155,115.037767 189.763155,114.710024 C189.763155,112.809115 188.845474,111.629241 186.026885,111.629241 C181.241838,111.629241 171.081808,116.086545 164.395852,120.150557 L155.874536,168.525413 L137.979772,168.525413 L147.615414,114.185636 L165.772372,103.30457 C175.342466,98.0606837 186.682371,94.1933171 195.138139,94.1933171 C202.741774,94.1933171 206.478044,98.0606837 207.854564,103.435668 C218.145692,97.4707464 229.3545,94.1933171 237.67917,94.1933171 Z M351.143772,94.5866086 L338.165152,168.459864 L320.270388,168.459864 L332.790168,97.0774549 L351.143772,94.5866086 Z M386.540008,63.5165792 L368.055307,168.394316 L350.160543,168.394316 L368.186404,66.0074254 L386.540008,63.5165792 Z M291.166816,109.269492 C279.695814,109.269492 277.401613,114.054538 275.828447,123.559083 L271.305595,149.057483 C271.174498,149.975163 271.174498,150.434003 271.174498,150.827295 C271.174498,153.514787 272.813212,154.694661 276.090641,154.694661 C281.72782,154.694661 289.986941,149.319677 295.493023,143.813596 L301.457944,110.318269 C298.180515,109.728332 294.903085,109.269492 291.166816,109.269492 Z M442.190757,101.338113 C429.212137,101.338113 422.329535,108.089617 419.77314,122.379209 L418.134426,131.621559 C418.134426,131.621559 420.953015,130.900525 434.980412,127.164256 C448.614518,123.624632 454.120599,118.708488 454.120599,110.908206 C454.120599,104.353348 449.794393,101.338113 442.190757,101.338113 Z M356.649853,63.5165792 L353.110229,83.8366406 L334.756625,86.5241326 L338.296249,66.0074254 L356.649853,63.5165792 Z M408.760978,64.8275509 L405.745743,81.6735373 L397.224427,82.8534119 L400.108565,66.0074254 L408.760978,64.8275509 Z"></path>
		</g>
</svg>

<svg xmlns="http://www.w3.org/2000/svg" viewBox="0 0 512 199.333">
  <g fill="#fead0d">
    <path d="M263.899 26.94 231.714 44.64 58.863 139.815l-10.62 5.834 31.464-46.015 4.588-30.48zM0 0l98.847 13.7 75.512 10.422 35.593 4.982 8.784 1.18L83.18 61.09l-1.376-.983-45.557-33.495zM403.583 95.111l-14.028 78.986c-1.507 8.784-2.425 10.75-21.04 25.236l-4.458-6.096c14.29-11.667 16.125-12.978 17.436-20.779l13.437-76.167zm39.46-.787c11.799 0 19.271 5.965 19.271 16.846 0 11.668-7.735 17.895-27.661 23.467a5307.989 5307.989 0 0 0-17.751 4.912l-.012.003-1.836 9.899c-.131 1.376-.262 2.687-.262 3.932 0 6.096 2.36 9.243 12.52 9.243 8.39 0 16.715-2.819 25.695-7.014l2.097 6.424c-8.783 4.654-18.943 7.931-28.776 7.931-13.634 0-19.86-5.375-19.86-16.387 0-2.229.327-4.654.786-7.145l4.26-24.515c3.343-18.485 12.848-27.596 31.53-27.596zm-149.189-.065c7.014 0 19.993 2.229 27.465 4.654l-12.257 69.481h-15.077l-.13-8.062c-6.228 5.703-14.028 9.57-23.73 9.57-12.52 0-16.91-6.686-16.91-16.584 0-2.425.327-4.916.786-7.604l3.736-21.172c3.409-19.73 8.063-30.283 36.117-30.283zM493.45 76.823l-3.278 18.943H512l-1.639 7.145h-21.5l-9.373 53.553c-.197 1.05-.328 1.901-.328 2.688 0 2.819 1.442 3.54 4.916 3.54 4.064 0 9.112-1.18 14.487-3.409l2.097 5.637c-5.572 3.147-11.799 4.916-18.091 4.916-7.342.066-11.996-3.08-11.996-9.635 0-.918.131-1.836.328-2.819l9.57-54.47h-13.896l1.18-7.146h14.027l3.146-17.763zm-255.77 17.37c9.963 0 13.306 6.555 13.306 14.487 0 2.556-.263 4.916-.787 7.144l-9.242 52.57h-17.895l9.111-51.783c.131-.787.131-1.639.131-1.967 0-1.9-.917-3.08-3.736-3.08-4.785 0-14.945 4.457-21.631 8.521l-8.521 48.375H180.52l9.111-51.784c.131-.786.131-1.638.131-1.966 0-1.9-.918-3.08-3.736-3.08-4.785 0-14.945 4.457-21.631 8.52l-8.521 48.375H137.98l9.635-54.34 18.157-10.88c9.57-5.244 20.91-9.112 29.366-9.112 7.604 0 11.34 3.868 12.717 9.243 10.29-5.965 21.5-9.243 29.824-9.243zm113.464.394-12.979 73.873H320.27l12.52-71.383zm35.396-31.07-18.485 104.877h-17.894l18.025-102.387zm-95.373 45.752c-11.471 0-13.765 4.786-15.339 14.29l-4.522 25.498c-.131.918-.131 1.377-.131 1.77 0 2.688 1.638 3.868 4.916 3.868 5.637 0 13.896-5.375 19.402-10.881l5.965-33.496c-3.277-.59-6.555-1.049-10.291-1.049zm151.024-7.93c-12.979 0-19.861 6.75-22.418 21.04l-1.639 9.243s2.819-.721 16.846-4.458c13.635-3.54 19.14-8.456 19.14-16.256 0-6.555-4.326-9.57-11.93-9.57zM356.65 63.516l-3.54 20.32-18.353 2.687 3.54-20.517zm52.111 1.31-3.015 16.847-8.522 1.18 2.885-16.847z"/>
  </g>
</svg>
